X:0577
M:3/4
L:1/8
Q:1/4=112
K:G
d4      e>^c  | d4     e>^c |    d2     A2     B2       |    A2      TG2   F2 |\
d4      e2    | f2  g2 f2   |    e2     d2    ^c2       |    d2       g2   f2 |\
d3    g fe    | e2  dc BA   |    G2     A>B    B3/A//B//|    c4            z2 |\

